packages/foundations/assets/icons/functional/images/communication/speech_bubbles_32.svg

<svg width="32" height="32" viewBox="0 0 32 32" fill="none" xmlns="http://www.w3.org/2000/svg">
<g clip-path="url(#clip0_185_512)">
<path fill-rule="evenodd" clip-rule="evenodd" d="M6 9C6.5625 9 7 9.4375 7 10C7 10.5 6.625 11 6 11H5C4.5 11 4 11.375 4 12V26.5938L6.7188 23.875C7.2188 23.375 7.9062 23 8.625 23H18C18.5 23 19 22.625 19 22V21C19 20.4375 19.4375 20 20 20C20.5 20 21 20.375 21 21V22C21 23.5938 19.75 25 18.1875 25H8.8438C8.5938 25 8.3125 25.0938 8.125 25.2812L3.9062 29.5312C3.7188 29.7188 3.2812 30 2.7812 30C2.3438 30 2 29.5312 2 29V12C2 10.4062 3.25 9 5 9H6ZM27 2C28.6562 2 30 3.3438 30 5V22C30 22.5938 29.5 23 28.9688 23C28.75 23 28.5 22.9375 28.2812 22.7188L23.875 18.2812C23.6875 18.0938 23.4375 18 23.1875 18H12C10.3438 18 9 16.6562 9 15V5C9 3.3438 10.3438 2 12 2H27ZM27.125 4H12C11.4375 4 11 4.4375 11 5V15C11 15.5625 11.4375 16 12 16H23.1875C23.9688 16 24.7188 16.3125 25.2812 16.875L28 19.5938V5C28 4.5 27.625 4 27.125 4Z" fill="#1A1C1F"/>
</g>
<defs>
<clipPath id="clip0_185_512">
<rect width="32" height="32" fill="white"/>
</clipPath>
</defs>
</svg>

<svg xmlns="http://www.w3.org/2000/svg" width="32" height="32" fill="none"><g clip-path="url(#a)"><path fill="#1A1C1F" fill-rule="evenodd" d="M6 9c.563 0 1 .438 1 1 0 .5-.375 1-1 1H5c-.5 0-1 .375-1 1v14.594l2.719-2.719c.5-.5 1.187-.875 1.906-.875H18c.5 0 1-.375 1-1v-1c0-.562.438-1 1-1 .5 0 1 .375 1 1v1c0 1.594-1.25 3-2.812 3H8.844c-.25 0-.531.094-.719.281l-4.219 4.25c-.187.188-.625.469-1.125.469C2.344 30 2 29.531 2 29V12c0-1.594 1.25-3 3-3zm21-7a3 3 0 0 1 3 3v17c0 .594-.5 1-1.031 1a.94.94 0 0 1-.688-.281l-4.406-4.438a.97.97 0 0 0-.687-.281H12a3 3 0 0 1-3-3V5a3 3 0 0 1 3-3zm.125 2H12c-.562 0-1 .438-1 1v10c0 .563.438 1 1 1h11.188c.78 0 1.53.313 2.093.875L28 19.594V5c0-.5-.375-1-.875-1" clip-rule="evenodd"/></g><defs><clipPath id="a"><path fill="#fff" d="M0 0h32v32H0z"/></clipPath></defs></svg>
